img/decore/episodes__decore.svg

<svg width="126" height="122" viewBox="0 0 126 122" fill="none" xmlns="http://www.w3.org/2000/svg">
<path d="M59.5417 59.2904C60.0417 57.2904 60.3334 55.6654 60.8751 54.0821C66.2918 38.0821 75.0001 23.8321 84.9168 10.2904C86.0834 8.70706 87.5418 7.20706 89.1668 6.20706C90.0418 5.6654 91.7918 5.74873 92.7918 6.2904C93.5418 6.70707 94.0834 8.33206 93.9168 9.24873C93.6251 10.9987 93.0001 12.7904 92.1251 14.3737C86.3751 24.8321 80.5834 35.2487 74.7084 45.6237C72.5001 49.4987 70.1667 53.3321 67.8751 57.1654C67.1251 58.4571 66.2917 59.7071 65.4167 60.8737C64.4584 62.2071 63.0001 62.9987 61.5418 62.1237C60.5834 61.5404 59.5417 61.1237 59.5417 59.2904Z" fill="#CD4631"/>
<path d="M118.542 121.333C116.542 121 114.208 120.75 111.958 120.25C103.083 118.25 94.2084 116.25 85.375 114.167C83.4584 113.708 81.5834 112.917 79.875 112C77.5834 110.792 76.7917 109.083 77.1667 107.208C77.5417 105.333 79.0417 104.167 81.6667 104.125C83.4584 104.083 85.375 104.125 87.0834 104.542C98.2917 107.375 109.5 110.292 120.667 113.25C121.917 113.583 123.208 114.167 124.167 115C126.583 117.042 125.833 120.25 122.75 121.042C121.542 121.333 120.167 121.208 118.542 121.333Z" fill="#CD4631"/>
<path d="M1.45838 9.62427C1.62505 7.66594 2.04172 5.7076 2.54172 3.79094C3.00005 2.0826 4.16672 0.87427 6.04172 0.707604C7.62505 0.582604 9.33338 2.16594 9.58338 4.24927C9.91671 7.04094 10.2084 9.87427 10.0834 12.6659C9.70838 21.0826 9.16671 29.5409 8.58338 37.9576C8.37505 40.7493 8.00005 43.5409 7.54172 46.3326C7.37505 47.2909 7.04172 48.2909 6.50005 49.0409C5.04172 51.1659 2.37505 50.9993 1.33338 48.7076C0.750051 47.4159 0.500052 45.8326 0.500052 44.4159C0.291719 39.7493 0.916717 16.5409 1.45838 9.62427Z" fill="#CD4631"/>
</svg>

<svg width="126" height="122" fill="none" xmlns="http://www.w3.org/2000/svg"><path d="M59.542 59.29c.5-2 .791-3.625 1.333-5.208 5.417-16 14.125-30.25 24.042-43.792 1.166-1.583 2.625-3.083 4.25-4.083.875-.542 2.625-.458 3.625.083.75.417 1.291 2.042 1.125 2.959a16.336 16.336 0 01-1.792 5.125 2848.27 2848.27 0 01-17.417 31.25c-2.208 3.875-4.541 7.708-6.833 11.541a38.104 38.104 0 01-2.458 3.709c-.959 1.333-2.417 2.125-3.875 1.25-.959-.584-2-1-2-2.834zm59 62.043c-2-.333-4.334-.583-6.584-1.083-8.875-2-17.75-4-26.583-6.083-1.917-.459-3.792-1.25-5.5-2.167-2.292-1.208-3.083-2.917-2.708-4.792s1.875-3.041 4.5-3.083c1.791-.042 3.708 0 5.416.417a3054.341 3054.341 0 0133.584 8.708c1.25.333 2.541.917 3.5 1.75 2.416 2.042 1.666 5.25-1.417 6.042-1.208.291-2.583.166-4.208.291zM1.458 9.624c.167-1.958.584-3.916 1.084-5.833C3 2.083 4.167.874 6.042.708 7.625.583 9.333 2.166 9.583 4.249c.334 2.792.625 5.625.5 8.417-.375 8.417-.916 16.875-1.5 25.292-.208 2.791-.583 5.583-1.041 8.375-.167.958-.5 1.958-1.042 2.708-1.458 2.125-4.125 1.958-5.167-.333C.75 47.416.5 45.833.5 44.416c-.208-4.667.417-27.875.958-34.792z" fill="#CD4631"/></svg>
